X:2
%
T:Cruiskeen Lawn [1], The
M:C
L:1/8
R:Air
Q:"Moderato"
B:P.H. Hughes -- Gems from the Emerald Isle (c. 1860's, No. 72, p. 17)
Z:AK/Fiddler's Companion
K:Gmin
D2|DGGA B2 AB|c>BAG ^F2 D2|DGGA B>ABc|d6 f2|
d>BBd f2 ed|c>BAB c2 Bc|d>cB>G d2D2|
G2A2 B2Bc|d>c B<G d2D2 |G6||

